X:1
T:Sir Patrick Spens
M:4/4
L:1/4
K:Bb
 z/2 G/2| G c cB/2-c/2| d3/2-c/4-B/4 A F| G3 A| B/2 G3/2 F/2-G/4-F/4 E/2F/4-G/4|\
 G2 z z/2 C/2| C G F E/2D/2| E C G,/4 G,3/4 z/2 C/2| E E F3/2D/4-B,/4|\
 C2 z||

